svg/system/alert_octagon_fill.svg

<?xml version="1.0" encoding="UTF-8"?>
<svg width="24px" height="24px" viewBox="0 0 24 24" version="1.1" xmlns="http://www.w3.org/2000/svg" xmlns:xlink="http://www.w3.org/1999/xlink">
    <title>alert_fill</title>
    <g id="页面-1" stroke="none" stroke-width="1" fill="none" fill-rule="evenodd">
        <g id="System" transform="translate(-286.000000, -240.000000)">
            <g id="alert_fill" transform="translate(286.000000, 240.000000)">
                 <path d="M24,0 L24,24 L0,24 L0,0 L24,0 Z M12.5934901,23.257841 L12.5819402,23.2595131 L12.5108777,23.2950439 L12.4918791,23.2987469 L12.4918791,23.2987469 L12.4767152,23.2950439 L12.4056548,23.2595131 C12.3958229,23.2563662 12.3870493,23.2590235 12.3821421,23.2649074 L12.3780323,23.275831 L12.360941,23.7031097 L12.3658947,23.7234994 L12.3769048,23.7357139 L12.4804777,23.8096931 L12.4953491,23.8136134 L12.4953491,23.8136134 L12.5071152,23.8096931 L12.6106902,23.7357139 L12.6232938,23.7196733 L12.6232938,23.7196733 L12.6266527,23.7031097 L12.609561,23.275831 C12.6075724,23.2657013 12.6010112,23.2592993 12.5934901,23.257841 L12.5934901,23.257841 Z M12.8583906,23.1452862 L12.8445485,23.1473072 L12.6598443,23.2396597 L12.6498822,23.2499052 L12.6498822,23.2499052 L12.6471943,23.2611114 L12.6650943,23.6906389 L12.6699349,23.7034178 L12.6699349,23.7034178 L12.678386,23.7104931 L12.8793402,23.8032389 C12.8914285,23.8068999 12.9022333,23.8029875 12.9078286,23.7952264 L12.9118235,23.7811639 L12.8776777,23.1665331 C12.8752882,23.1545897 12.8674102,23.1470016 12.8583906,23.1452862 L12.8583906,23.1452862 Z M12.1430473,23.1473072 C12.1332178,23.1423925 12.1221763,23.1452606 12.1156365,23.1525954 L12.1099173,23.1665331 L12.0757714,23.7811639 C12.0751323,23.7926639 12.0828099,23.8018602 12.0926481,23.8045676 L12.108256,23.8032389 L12.3092106,23.7104931 L12.3186497,23.7024347 L12.3186497,23.7024347 L12.3225043,23.6906389 L12.340401,23.2611114 L12.337245,23.2485176 L12.337245,23.2485176 L12.3277531,23.2396597 L12.1430473,23.1473072 Z" id="MingCute" fill-rule="nonzero"></path>
                <path d="M15.3137,2 C15.8441,2 16.3529,2.21071 16.7279,2.58579 L21.4142,7.27208 C21.7893,7.64715 22,8.15586 22,8.68629 L22,15.3137 C22,15.8441 21.7893,16.3529 21.4142,16.7279 L16.7279,21.4142 C16.3528,21.7893 15.8441,22 15.3137,22 L8.68629,22 C8.15586,22 7.64715,21.7893 7.27208,21.4142 L2.58579,16.7279 C2.21071,16.3528 2,15.8441 2,15.3137 L2,8.68629 C2,8.15586 2.21071,7.64715 2.58579,7.27208 L7.27208,2.58579 C7.64715,2.21071 8.15586,2 8.68629,2 L15.3137,2 Z M12,15 C11.4477,15 11,15.4477 11,16 C11,16.5523 11.4477,17 12,17 C12.5523,17 13,16.5523 13,16 C13,15.4477 12.5523,15 12,15 Z M12,6 C11.48715,6 11.0644908,6.38604429 11.0067275,6.88337975 L11,7 L11,13 C11,13.5523 11.4477,14 12,14 C12.51285,14 12.9355092,13.613973 12.9932725,13.1166239 L13,13 L13,7 C13,6.44772 12.5523,6 12,6 Z" id="形状" fill="#09244B"></path>
            </g>
        </g>
    </g>
</svg>

<svg xmlns="http://www.w3.org/2000/svg" width="24" height="24"><g fill="none" fill-rule="evenodd"><path d="M24 0v24H0V0h24ZM12.593 23.258l-.011.002-.071.035-.02.004-.014-.004-.071-.035c-.01-.004-.019-.001-.024.005l-.004.01-.017.428.005.02.01.013.104.074.015.004.012-.004.104-.074.012-.016.004-.017-.017-.427c-.002-.01-.009-.017-.017-.018Zm.265-.113-.013.002-.185.093-.01.01-.003.011.018.43.005.012.008.007.201.093c.012.004.023 0 .029-.008l.004-.014-.034-.614c-.003-.012-.01-.02-.02-.022Zm-.715.002a.023.023 0 0 0-.027.006l-.006.014-.034.614c0 .012.007.02.017.024l.015-.002.201-.093.01-.008.004-.011.017-.43-.003-.012-.01-.01-.184-.092Z"/><path fill="#09244B" d="M15.314 2a2 2 0 0 1 1.414.586l4.686 4.686A2 2 0 0 1 22 8.686v6.628a2 2 0 0 1-.586 1.414l-4.686 4.686a2 2 0 0 1-1.414.586H8.686a2 2 0 0 1-1.414-.586l-4.686-4.686A2 2 0 0 1 2 15.314V8.686a2 2 0 0 1 .586-1.414l4.686-4.686A2 2 0 0 1 8.686 2h6.628ZM12 15a1 1 0 1 0 0 2 1 1 0 0 0 0-2Zm0-9a1 1 0 0 0-.993.883L11 7v6a1 1 0 0 0 1.993.117L13 13V7a1 1 0 0 0-1-1Z"/></g></svg>
